wp-content/plugins/google-analytics-for-wordpress/lite/assets/vue/img/yir-map-bg.svg

<svg width="960" height="875" fill="none" xmlns="http://www.w3.org/2000/svg"><path d="M-214.929 367.059l-2.874 24.918-24.907-6.709-12.453-18.209-10.538-34.502v-23.959l10.538-4.792-4.79-33.543h-11.495l-5.748-44.086-8.621-23.959-20.117-10.542-24.907 5.75-11.495-19.168v-14.375L-350 149.507l33.528-22.043v-16.292l-10.537-3.834 10.537-13.417 15.327-14.376V69.004l15.328-14.375 34.486-20.126 53.645-27.793L-168.948 0l28.739 16.292 17.243 23.96-5.748 8.625 5.748 13.418 13.411 10.542 11.495-13.418 17.243 13.418-28.738 49.836-13.411 37.376 13.411 12.459 2.874 42.169-8.622 8.625-10.537 23.96-2.874 39.293-25.865 22.043h-14.369l-5.748 12.459-16.285 17.251h-10.537l-3.832 6.708-2.874 12.459-6.705 9.584zM41.8 847.207L51.38 875l36.402-2.875 19.159-24.918V833.79l9.58-2.875 7.663-14.376-2.874-20.126 21.075-5.75 3.832-16.293-3.832-23.959v-16.293l14.369-17.251 29.697-34.501 2.874-18.209h-29.697c7.025-2.556 22.225-7.667 26.823-7.667 4.598 0 16.604-10.862 22.033-16.293l20.117-16.292-5.748-10.543-4.79-9.583h18.201l22.033 3.833 9.579 9.584 8.622 6.709 7.663-3.834 2.874 28.752 11.496 25.876 6.705 7.667 12.454-7.667v-25.876l23.948-19.168 21.075-9.584 10.538 9.584 13.411 13.417 6.706 13.418v25.876l22.99 26.834 2.874-11.5-18.201-23.001 3.832-13.418 19.159 17.251 11.495-5.75 8.622-16.292-14.369-21.085 3.831-11.5 25.865-3.834 27.78-12.459 13.412-34.501-13.412-23.002-9.579-13.417 11.495-6.708h21.075l16.285 3.833 3.832-7.667 12.453-10.542 17.243-13.417 17.244-13.418 4.789-38.335-4.789-12.459-20.117-7.667 37.36-32.585h45.981l4.79-11.5 17.243-10.542 7.664 20.126-24.907 23.001v47.919l17.243-19.168 13.411-31.627 3.832-20.125 14.369-6.709 17.243 2.875 35.444-24.918v-36.418l31.613 22.042L789 328.724l-14.369-10.542-50.771-31.627-41.192 7.667-20.117-7.667-5.748-12.459h-33.528l-2.874-12.459-38.318-11.5-6.705 15.334h-28.739l-10.537 11.5-5.748-15.334v-23.959l-24.907-4.792-4.789 10.542-22.991-5.75h-41.192l20.117-15.334 4.79-23.96-4.79-15.334h-20.117l-10.537-18.209-15.327 6.709-6.706 19.167h-22.033l-18.201 11.501-22.033 16.292-8.621 14.376c-7.025 3.514-21.65 11.309-23.949 14.376-2.299 3.067-10.537 3.194-14.369 2.875l-2.874 26.834-8.621 6.709v-36.418l-10.538-9.584-12.453 32.585v33.543l-18.201-12.459-15.327-7.667-3.832 20.126h-24.907l-24.906 9.584-16.286 15.334-9.579 19.168-22.991 1.916-7.663-23.001 25.864 7.667 6.706-16.292-15.327-14.376-27.781-17.251-6.705-9.584-22.991-6.708-29.697 16.292-8.621 17.251-8.622 14.376-14.369 31.626-24.907 15.334-4.79 16.293 6.706 16.292 3.832 10.542 22.033-10.542v14.376l-15.327 9.584 5.747 5.75h17.244l12.453-11.501 8.621-18.209 1.916-8.625-6.705-7.667 2.873-14.376 16.286-22.043 10.537-10.542 4.79 10.542-15.327 22.043 2.873 22.043 7.664 6.709-3.832 12.458-6.705 17.251-12.454 9.584H8.272l-8.621 4.792-7.664 15.334-18.2 11.501h-23.95l-4.79 11.5 16.286 11.501v18.209h-34.486l4.79 9.584-4.79 22.042 11.495 4.792 11.496 4.792 11.495-4.792 8.622-16.292 6.705-12.459 15.327-4.792 16.285-6.709 21.075 23.96 4.79 16.292 7.664-4.792 2.873-13.417L23.6 502.191v-6.709l18.2 12.459 13.412 18.209v13.417l8.621 9.584h60.351v15.334l-14.369 8.626-13.411 4.792-15.328-7.668-17.242-2.875h-8.622v13.418L23.6 567.36l-8.622-12.459-2.874-10.542H-4.18l-39.276 7.667h-16.285l-13.411 18.209-3.832 14.376-15.327 6.709-14.369 26.834v42.169l14.369 14.376 19.159 23.001h37.36l21.075-7.667L-4.18 697.7H5.4l4.79 7.667 1.915 18.209L23.6 740.827l3.831 22.043-9.579 30.668 11.495 18.209 3.832 28.751 8.622 6.709zm930.265-538.153h1.39v-5.556l-3.244-7.409.927-2.779 7.415-5.093 4.635-4.631-.464-4.167.464-3.242 2.317-2.778 3.708-2.778 4.634-4.168v-3.241l3.708-2.778 7.875-2.779 3.25-3.241-3.25-4.168.93-5.093-4.17-1.389 1.85-2.316h12.98l8.81-6.946-3.71-5.093-7.42-6.946-1.85-6.946-7.42-12.965-5.558 11.113-3.244-6.946-1.39-5.093-3.245-.926-6.488-5.094-7.879-1.389.927 12.502-1.854 4.168 3.708 4.63-.463 6.02-5.562 4.167 3.244 10.188-5.098 2.315-3.707-4.631v-9.724l-6.952-.463-9.269-6.02h-2.781l-2.781-.926-1.854-6.482-2.317-.927.464-7.408 3.707-4.168 6.489-6.483 4.171-6.945 4.171-8.335 1.854 1.389 4.634-.463 2.317-6.483 1.854-8.335-5.098-3.704-5.561-1.39v5.094l-2.318 4.63-2.317 3.705-4.634-5.557-1.391-6.019-3.707-8.798-3.245-6.483.927-4.631 4.171-3.241L941.94 128l-1.39 17.133-.927 8.335 4.634 3.241v7.872l-4.171 6.946-.463-1.389v-7.409l.463-4.63-5.561-2.316-2.781 4.631 3.708 3.704-.927 3.242H928.5l-6.025-1.853-3.708-3.241-4.171.926-6.951 5.557h-7.879v-2.316l1.854-3.241-14.831-6.483-15.294-5.556-4.635 2.778-11.122 5.557-1.391 2.315h-1.39l-3.244-3.704-5.098-1.39-6.489-1.852-8.342-1.389-2.317-1.389h-5.098l-4.171-3.242-6.952-1.852-5.098 3.242-6.025 4.63-.927 4.631-4.635 2.778h-3.244v2.315l6.952 6.02 3.708 3.704.463 3.242-4.634-.463-1.854-2.316-6.952 5.557 4.171 5.094h7.879l2.781-.926v5.093l-8.806 1.852-3.244 5.557 2.78 5.557 3.245 4.167 3.244-.463v5.094h2.781l4.171-.463h2.78l-.927 4.63-5.098 5.557L789 230.335l1.39 1.389 15.294-8.335 7.416-6.02 6.488-6.482-1.39-1.853 5.098-6.482h1.854l-2.781 6.482h2.317l1.854-1.389 3.244-1.389 3.244-1.389 11.587 1.389 6.951 3.705 11.123 15.743 3.708 1.39 1.39 3.241 5.098 7.409-.927 2.315 7.416 7.872 1.854 6.483-.927 7.409v10.187l8.342 15.281h3.244l3.708 4.63 4.171 8.335 4.634 5.557 3.245 5.556 1.853 3.242h2.318l-.927-3.242-5.098-7.871-4.635-6.483v-3.242l2.317.927 1.854 2.778 2.318 3.241 6.488 6.946 5.098 7.409.927 6.02 13.44 7.872 12.977 2.315 1.854 2.315 4.171.926 4.634 1.389 2.317 2.779 3.245 5.556 6.951 4.168 5.099.926v-2.315l3.707.926-.927 8.798-2.78 3.704-2.781 4.168v5.556l-1.854 5.557 3.244 1.852 6.489 11.113 1.39 5.094 12.513 9.261-.463 16.67-1.854 6.02-.464 11.576-4.171 9.724-1.39 18.059-3.244 12.503.927 13.428 7.415 9.725 9.269 3.241 6.028-3.704-4.64-1.853-3.242-3.241-.463-5.094v-4.167l2.785-.926v-4.168l3.7-3.241v-2.315l-2.78-.926-.92-1.853v-1.852l4.63-1.852v-4.631l3.71-1.389v-1.852l-3.71-.463v-2.778h5.56l.93-4.168 8.34-2.778 2.32-5.094v-4.167l6.95-1.389 10.66-14.355v-6.946l6.95-5.557 7.42-.463 6.02-11.113v-10.187l7.88-8.798v-8.798l-5.1-.463-4.63-4.631h-7.42l-2.78-2.315-11.12-4.168-1.86-5.556-4.63-5.557-8.81-.926-1.39-2.315-8.8-6.02-5.1-.926-1.39.926-6.952-.926-3.244-4.168-11.123 2.779-1.39 4.167-2.781 1.852-2.317-3.704h-4.171l-3.245 1.852-1.853-.926-1.391-3.241.927-8.335-2.317-1.852h-7.415l-.464-1.39.464-4.167v-2.315l3.244-.463-.464-2.316-2.78-1.852-6.025 1.852-.927 4.168-6.952 1.852-4.171-3.241-2.781-5.557v-6.946l.927-1.389v-5.557l2.781-1.852 6.025-1.852 4.171 1.852h1.854l.927-1.852 1.853-1.389h8.806l3.244 3.241v3.705l4.635 5.093z" fill="#fff" style="mix-blend-mode:multiply"/></svg>

<svg width="960" height="875" viewBox="0 0 960 875" fill="none" xmlns="http://www.w3.org/2000/svg">
    <path d="M-214.929 367.059L-217.803 391.977L-242.71 385.268L-255.163 367.059L-265.701 332.557V308.598L-255.163 303.806L-259.953 270.263H-271.448L-277.196 226.177L-285.817 202.218L-305.934 191.676L-330.841 197.426L-342.336 178.258V163.883L-350 149.507L-316.472 127.464V111.172L-327.009 107.338L-316.472 93.9211L-301.145 79.5455V69.0033L-285.817 54.6276L-251.331 34.5016L-197.686 6.70865L-168.948 0L-140.209 16.2924L-122.966 40.2519L-128.714 48.8773L-122.966 62.2946L-109.555 72.8368L-98.0597 59.4195L-80.8167 72.8368L-109.555 122.673L-122.966 160.049L-109.555 172.508L-106.681 214.677L-115.303 223.302L-125.84 247.262L-128.714 286.555L-154.579 308.598H-168.948L-174.696 321.057L-190.981 338.308H-201.518L-205.35 345.016L-208.224 357.475L-214.929 367.059Z" fill="white" style="mix-blend-mode:multiply"/>
    <path d="M41.8007 847.207L51.3802 875L87.7822 872.125L106.941 847.207V833.79L116.521 830.915L124.184 816.539L121.31 796.413L142.385 790.663L146.217 774.37L142.385 750.411V734.118L156.754 716.867L186.451 682.366L189.325 664.157H159.628C166.653 661.601 181.853 656.49 186.451 656.49C191.049 656.49 203.055 645.628 208.484 640.197L228.601 623.905L222.853 613.362L218.063 603.779H236.264L258.297 607.612L267.876 617.196L276.498 623.905L284.161 620.071L287.035 648.823L298.531 674.699L305.236 682.366L317.69 674.699V648.823L341.638 629.655L362.713 620.071L373.251 629.655L386.662 643.072L393.368 656.49V682.366L416.358 709.2L419.232 697.7L401.031 674.699L404.863 661.281L424.022 678.532L435.517 672.782L444.139 656.49L429.77 635.405L433.601 623.905L459.466 620.071L487.246 607.612L500.658 573.111L487.246 550.109L477.667 536.692L489.162 529.984H510.237L526.522 533.817L530.354 526.15L542.807 515.608L560.05 502.191L577.294 488.773L582.083 450.438L577.294 437.979L557.177 430.312L594.537 397.727H640.518L645.308 386.227L662.551 375.685L670.215 395.811L645.308 418.812V466.731L662.551 447.563L675.962 415.936L679.794 395.811L694.163 389.102L711.406 391.977L746.85 367.059V352.683V330.641L778.463 352.683L789 328.724L774.631 318.182L723.86 286.555L682.668 294.222L662.551 286.555L656.803 274.096H623.275L620.401 261.637L582.083 250.137L575.378 265.471H546.639L536.102 276.971L530.354 261.637V237.678L505.447 232.886L500.658 243.428L477.667 237.678H456.592H436.475L456.592 222.344L461.382 198.384L456.592 183.05H436.475L425.938 164.841L410.611 171.55L403.905 190.717H381.872L363.671 202.218L341.638 218.51L333.017 232.886C325.992 236.4 311.367 244.195 309.068 247.262C306.769 250.329 298.531 250.456 294.699 250.137L291.825 276.971L283.204 283.68V247.262L272.666 237.678L260.213 270.263V303.806L242.012 291.347L226.685 283.68L222.853 303.806H197.946L173.04 313.39L156.754 328.724L147.175 347.892L124.184 349.808L116.521 326.807L142.385 334.474L149.091 318.182L133.764 303.806L105.983 286.555L99.2776 276.971L76.2868 270.263L46.5904 286.555L37.9689 303.806L29.3474 318.182L14.9781 349.808L-9.92853 365.142L-14.7183 381.435L-8.0126 397.727L-4.18082 408.269L17.852 397.727V412.103L2.52481 421.687L8.27249 427.437H25.5156L37.9689 415.936L46.5904 397.727L48.5063 389.102L41.8007 381.435L44.6745 367.059L60.9596 345.016L71.4971 334.474L76.2868 345.016L60.9596 367.059L63.8335 389.102L71.4971 395.811L67.6653 408.269L60.9596 425.52L48.5063 435.104H23.5997H8.27249L-0.34903 439.896L-8.0126 455.23L-26.2136 466.731H-50.1623L-54.9521 478.231L-38.6669 489.732V507.941H-73.1531L-68.3633 517.525L-73.1531 539.567L-61.6577 544.359L-50.1623 549.151L-38.6669 544.359L-30.0454 528.067L-23.3398 515.608L-8.0126 510.816L8.27249 504.107L29.3474 528.067L34.1371 544.359L41.8007 539.567L44.6745 526.15L23.5997 502.191V495.482L41.8007 507.941L55.2119 526.15V539.567L63.8335 549.151H81.0765H99.2776H116.521H124.184V564.485L109.815 573.111L96.4037 577.903L81.0765 570.235L63.8335 567.36H55.2119V580.778L23.5997 567.36L14.9781 554.901L12.1043 544.359H-4.18082L-43.4567 552.026H-59.7418L-73.1531 570.235L-76.9849 584.611L-92.312 591.32L-106.681 618.154V660.323L-92.312 674.699L-73.1531 697.7H-35.7931L-14.7183 690.033L-4.18082 697.7H5.39865L10.1884 705.367L12.1043 723.576L23.5997 740.827L27.4315 762.87L17.852 793.538L29.3474 811.747L33.1791 840.498L41.8007 847.207Z" fill="white" style="mix-blend-mode:multiply"/>
    <path d="M972.065 309.054H973.455V303.498L970.211 296.089L971.138 293.31L978.553 288.217L983.188 283.586L982.724 279.419L983.188 276.177L985.505 273.399L989.213 270.621L993.847 266.453V263.212L997.555 260.434L1005.43 257.655L1008.68 254.414L1005.43 250.246L1006.36 245.153L1002.19 243.764L1004.04 241.448H1017.02L1025.83 234.502L1022.12 229.409L1014.7 222.463L1012.85 215.517L1005.43 202.552L999.872 213.665L996.628 206.719L995.238 201.626L991.993 200.7L985.505 195.606L977.626 194.217L978.553 206.719L976.699 210.887L980.407 215.517L979.944 221.537L974.382 225.704L977.626 235.892L972.528 238.207L968.821 233.576V223.852L961.869 223.389L952.6 217.369H949.819L947.038 216.443L945.184 209.961L942.867 209.034L943.331 201.626L947.038 197.458L953.527 190.975L957.698 184.03L961.869 175.695L963.723 177.084L968.357 176.621L970.674 170.138L972.528 161.803L967.43 158.099L961.869 156.709V161.803L959.551 166.433L957.234 170.138L952.6 164.581L951.209 158.562L947.502 149.764L944.257 143.281L945.184 138.65L949.355 135.409L941.94 128L940.55 145.133L939.623 153.468L944.257 156.709V164.581L940.086 171.527L939.623 170.138V162.729L940.086 158.099L934.525 155.783L931.744 160.414L935.452 164.118L934.525 167.36H928.5L922.475 165.507L918.767 162.266L914.596 163.192L907.645 168.749H899.766V166.433L901.62 163.192L886.789 156.709L871.495 151.153L866.86 153.931L855.738 159.488L854.347 161.803H852.957L849.713 158.099L844.615 156.709L838.126 154.857L829.784 153.468L827.467 152.079H822.369L818.198 148.837L811.246 146.985L806.148 150.227L800.123 154.857L799.196 159.488L794.561 162.266H791.317V164.581L798.269 170.601L801.977 174.305L802.44 177.547L797.806 177.084L795.952 174.768L789 180.325L793.171 185.419H801.05L803.831 184.493V189.586L795.025 191.438L791.781 196.995L794.561 202.552L797.806 206.719L801.05 206.256V211.35H803.831L808.002 210.887H810.782L809.855 215.517L804.757 221.074L789 230.335L790.39 231.724L805.684 223.389L813.1 217.369L819.588 210.887L818.198 209.034L823.296 202.552H825.15L822.369 209.034H824.686L826.54 207.645L829.784 206.256L833.028 204.867L844.615 206.256L851.566 209.961L862.689 225.704L866.397 227.094L867.787 230.335L872.885 237.744L871.958 240.059L879.374 247.931L881.228 254.414L880.301 261.823V272.01L888.643 287.291H891.887L895.595 291.921L899.766 300.256L904.4 305.813L907.645 311.369L909.498 314.611H911.816L910.889 311.369L905.791 303.498L901.156 297.015V293.773L903.473 294.7L905.327 297.478L907.645 300.719L914.133 307.665L919.231 315.074L920.158 321.094L933.598 328.966L946.575 331.281L948.429 333.596L952.6 334.522L957.234 335.911L959.551 338.69L962.796 344.246L969.747 348.414L974.846 349.34V347.025L978.553 347.951L977.626 356.749L974.846 360.453L972.065 364.621V370.177L970.211 375.734L973.455 377.586L979.944 388.699L981.334 393.793L993.847 403.054L993.384 419.724L991.53 425.744L991.066 437.32L986.895 447.044L985.505 465.103L982.261 477.606L983.188 491.034L990.603 500.759L999.872 504L1005.9 500.296L1001.26 498.443L998.018 495.202L997.555 490.108V485.941L1000.34 485.015V480.847L1004.04 477.606V475.291L1001.26 474.365L1000.34 472.512V470.66L1004.97 468.808V464.177L1008.68 462.788V460.936L1004.97 460.473V457.695H1010.53L1011.46 453.527L1019.8 450.749L1022.12 445.655V441.488L1029.07 440.099L1039.73 425.744V418.798L1046.68 413.241L1054.1 412.778L1060.12 401.665V391.478L1068 382.68V373.882L1062.9 373.419L1058.27 368.788H1050.85L1048.07 366.473L1036.95 362.305L1035.09 356.749L1030.46 351.192L1021.65 350.266L1020.26 347.951L1011.46 341.931L1006.36 341.005L1004.97 341.931L998.018 341.005L994.774 336.837L983.651 339.616L982.261 343.783L979.48 345.635L977.163 341.931H972.992L969.747 343.783L967.894 342.857L966.503 339.616L967.43 331.281L965.113 329.429H957.698L957.234 328.039L957.698 323.872V321.557L960.942 321.094L960.478 318.778L957.698 316.926L951.673 318.778L950.746 322.946L943.794 324.798L939.623 321.557L936.842 316V309.054L937.769 307.665V302.108L940.55 300.256L946.575 298.404L950.746 300.256H952.6L953.527 298.404L955.38 297.015H964.186L967.43 300.256V303.961L972.065 309.054Z" fill="white" style="mix-blend-mode:multiply"/>
</svg>
